icons/fold-up-24.svg

<svg xmlns="http://www.w3.org/2000/svg" width="24" height="24" viewBox="0 0 24 24">
  <defs/>
  <path d="M11.47,5.22 C11.763,4.928 12.237,4.928 12.53,5.22 L15.78,8.47 C16.055,8.766 16.047,9.226 15.762,9.512 C15.476,9.797 15.016,9.805 14.72,9.53 L12,6.81 L9.28,9.53 C8.984,9.805 8.524,9.797 8.238,9.512 C7.953,9.226 7.945,8.766 8.22,8.47 Z"/>
  <path d="M12,5.5 C12.414,5.5 12.75,5.836 12.75,6.25 L12.75,14.25 C12.75,14.664 12.414,15 12,15 C11.586,15 11.25,14.664 11.25,14.25 L11.25,6.25 C11.25,5.836 11.586,5.5 12,5.5 Z M2.75,18 C2.75,17.586 3.086,17.25 3.5,17.25 L4.5,17.25 C4.914,17.25 5.25,17.586 5.25,18 C5.25,18.414 4.914,18.75 4.5,18.75 L3.5,18.75 C3.086,18.75 2.75,18.414 2.75,18 Z M6.75,18 C6.75,17.586 7.086,17.25 7.5,17.25 L8.5,17.25 C8.914,17.25 9.25,17.586 9.25,18 C9.25,18.414 8.914,18.75 8.5,18.75 L7.5,18.75 C7.086,18.75 6.75,18.414 6.75,18 Z M10.75,18 C10.75,17.586 11.086,17.25 11.5,17.25 L12.5,17.25 C12.914,17.25 13.25,17.586 13.25,18 C13.25,18.414 12.914,18.75 12.5,18.75 L11.5,18.75 C11.086,18.75 10.75,18.414 10.75,18 Z M14.75,18 C14.75,17.586 15.086,17.25 15.5,17.25 L16.5,17.25 C16.914,17.25 17.25,17.586 17.25,18 C17.25,18.414 16.914,18.75 16.5,18.75 L15.5,18.75 C15.086,18.75 14.75,18.414 14.75,18 Z M18.75,18 C18.75,17.586 19.086,17.25 19.5,17.25 L20.5,17.25 C20.914,17.25 21.25,17.586 21.25,18 C21.25,18.414 20.914,18.75 20.5,18.75 L19.5,18.75 C19.086,18.75 18.75,18.414 18.75,18 Z"/>
</svg>

<svg xmlns="http://www.w3.org/2000/svg" width="24" height="24" viewBox="0 0 24 24"><path d="M11.47 5.22a.75.75 0 011.06 0l3.25 3.25a.751.751 0 01-.018 1.042.751.751 0 01-1.042.018L12 6.81 9.28 9.53a.751.751 0 01-1.042-.018.751.751 0 01-.018-1.042z"/><path d="M12 5.5a.75.75 0 01.75.75v8a.75.75 0 01-1.5 0v-8A.75.75 0 0112 5.5zM2.75 18a.75.75 0 01.75-.75h1a.75.75 0 010 1.5h-1a.75.75 0 01-.75-.75zm4 0a.75.75 0 01.75-.75h1a.75.75 0 010 1.5h-1a.75.75 0 01-.75-.75zm4 0a.75.75 0 01.75-.75h1a.75.75 0 010 1.5h-1a.75.75 0 01-.75-.75zm4 0a.75.75 0 01.75-.75h1a.75.75 0 010 1.5h-1a.75.75 0 01-.75-.75zm4 0a.75.75 0 01.75-.75h1a.75.75 0 010 1.5h-1a.75.75 0 01-.75-.75z"/></svg>
